src/22/actions/view-list-details.svg

<svg xmlns="http://www.w3.org/2000/svg" viewBox="0 0 22 22"><path d="M3 3v7h7V3H3zm1 1h5v5H4V4zm8 0v1h7V4h-7zm0 4v1h7V8h-7zm-9 4v7h7v-7H3zm9 1v1h4v-1h-4zm0 4v1h4v-1h-4z" fill="currentColor" color="#5d656b"/></svg>

<svg xmlns="http://www.w3.org/2000/svg" viewBox="0 0 22 22">
  <defs id="defs3051">
    <style type="text/css" id="current-color-scheme">
      .ColorScheme-Text {
        color:#5d656b;
      }
      </style>
  </defs>
 <path 
     style="fill:currentColor;fill-opacity:1;stroke:none" 
     d="M 3 3 L 3 10 L 10 10 L 10 3 L 3 3 z M 4 4 L 9 4 L 9 9 L 4 9 L 4 4 z M 12 4 L 12 5 L 19 5 L 19 4 L 12 4 z M 12 8 L 12 9 L 19 9 L 19 8 L 12 8 z M 3 12 L 3 19 L 10 19 L 10 12 L 3 12 z M 12 13 L 12 14 L 16 14 L 16 13 L 12 13 z M 12 17 L 12 18 L 16 18 L 16 17 L 12 17 z "
	 class="ColorScheme-Text"
     />
</svg>
